core/duo/entertainment/vr-headset-1.svg

<svg xmlns="http://www.w3.org/2000/svg" fill="none" viewBox="0 0 14 14" id="Vr-Headset-1--Streamline-Core">
  <desc>
    Vr Headset 1 Streamline Icon: https://streamlinehq.com
  </desc>
  <g id="vr-headset-1--entertainment-gaming-vr-headset">
    <path id="Rectangle 337" fill="#ffffff" d="M5.60715 5.60707c0 -1.28209 1.03934 -2.32143 2.32143 -2.32143H12.5c0.5523 0 1 0.44772 1 1V6.9285c0 0.55229 -0.4477 1 -1 1H7.92858c-1.28209 0 -2.32143 -1.03934 -2.32143 -2.32143Z" stroke-width="1"></path>
    <path id="Subtract" fill="#d7e0ff" fill-rule="evenodd" d="M0.5 6.07143C0.5 2.99441 2.99441 0.5 6.07143 0.5c2.06221 0 3.86274 1.12041 4.82607 2.78571H7.92858c-1.28209 0 -2.32143 1.03933 -2.32143 2.32142 0 1.28209 1.03934 2.32143 2.32143 2.32143h3.71432l0 0.00003V10.25c0 0.5129 -0.4158 0.9286 -0.9286 0.9286H8.85714V13.5l-5.57143 0v-2.6025C1.62041 9.93417 0.5 8.13364 0.5 6.07143Z" clip-rule="evenodd" stroke-width="1"></path>
    <path id="Rectangle 337_2" stroke="#4147d5" stroke-linecap="round" stroke-linejoin="round" d="M5.60715 5.60707c0 -1.28209 1.03934 -2.32143 2.32143 -2.32143H12.5c0.5523 0 1 0.44772 1 1V6.9285c0 0.55229 -0.4477 1 -1 1H7.92858c-1.28209 0 -2.32143 -1.03934 -2.32143 -2.32143Z" stroke-width="1"></path>
    <path id="Ellipse 8" stroke="#4147d5" stroke-linecap="round" stroke-linejoin="round" d="M3.28571 13.5v-2.6025C1.62041 9.93417 0.5 8.13364 0.5 6.07143 0.5 2.99441 2.99441 0.5 6.07143 0.5c2.06221 0 3.86274 1.12041 4.82607 2.78571" stroke-width="1"></path>
    <path id="Ellipse 10" stroke="#4147d5" stroke-linecap="round" stroke-linejoin="round" d="M8.85715 13.5001v-2.3214h1.85715c0.5128 0 0.9286 -0.4157 0.9286 -0.9286V7.92871" stroke-width="1"></path>
    <path id="Ellipse 9" stroke="#4147d5" stroke-linecap="round" stroke-linejoin="round" d="m5.6062 5.60718 -5.088073 0" stroke-width="1"></path>
    <path id="Vector 775" stroke="#4147d5" stroke-linecap="round" stroke-linejoin="round" d="M9.32144 3.28564V7.9285" stroke-width="1"></path>
  </g>
</svg>

<svg xmlns="http://www.w3.org/2000/svg" fill="none" viewBox="0 0 14 14"><g id="vr-headset-1--entertainment-gaming-vr-headset"><path id="Rectangle 337" fill="#ffffff" d="M5.607 5.607A2.321 2.321 0 0 1 7.93 3.286h4.57a1 1 0 0 1 1 1v2.643a1 1 0 0 1-1 1H7.929a2.321 2.321 0 0 1-2.322-2.322Z"></path><path id="Subtract" fill="#37d7ff" fill-rule="evenodd" d="M.5 6.071a5.571 5.571 0 0 1 10.398-2.785h-2.97a2.321 2.321 0 1 0 0 4.643h3.715v2.321a.929.929 0 0 1-.929.929H8.857V13.5H3.286v-2.602A5.57 5.57 0 0 1 .5 6.07Z" clip-rule="evenodd"></path><path id="Rectangle 337_2" stroke="#3e3e3e" stroke-linecap="round" stroke-linejoin="round" d="M5.607 5.607A2.321 2.321 0 0 1 7.93 3.286h4.57a1 1 0 0 1 1 1v2.643a1 1 0 0 1-1 1H7.929a2.321 2.321 0 0 1-2.322-2.322Z"></path><path id="Ellipse 8" stroke="#3e3e3e" stroke-linecap="round" stroke-linejoin="round" d="M3.286 13.5v-2.602a5.571 5.571 0 1 1 7.612-7.612"></path><path id="Ellipse 10" stroke="#3e3e3e" stroke-linecap="round" stroke-linejoin="round" d="M8.857 13.5v-2.32h1.857a.929.929 0 0 0 .929-.929V7.93"></path><path id="Ellipse 9" stroke="#3e3e3e" stroke-linecap="round" stroke-linejoin="round" d="M5.606 5.607H.518"></path><path id="Vector 775" stroke="#3e3e3e" stroke-linecap="round" stroke-linejoin="round" d="M9.321 3.286v4.643"></path></g></svg>
